public/icon/svg/Tongyi.svg

<?xml version="1.0" encoding="UTF-8"?>
<svg width="1024px" height="1024px" viewBox="0 0 1024 1024" version="1.1" xmlns="http://www.w3.org/2000/svg" xmlns:xlink="http://www.w3.org/1999/xlink">
    <title>Tongyi</title>
    <defs>
        <linearGradient x1="76.7202373%" y1="41.3049811%" x2="18.306123%" y2="66.0646665%" id="linearGradient-1">
            <stop stop-color="#797BEB" offset="0%"></stop>
            <stop stop-color="#373080" offset="100%"></stop>
        </linearGradient>
    </defs>
    <g id="ICON-新版方图标" stroke="none" stroke-width="1" fill="none" fill-rule="evenodd">
        <g id="Tongyi" transform="translate(0, -0.0008)">
            <rect id="蒙版路径" fill="#FFFFFF" x="0" y="0" width="1024" height="1024"></rect>
            <g id="编组" transform="translate(142, 142.0008)" fill="url(#linearGradient-1)" fill-rule="nonzero">
                <path d="M371.836053,0 C379.041768,0 386.035551,3.87998835 389.85034,10.3466356 L431.813028,83.6353044 L617.890006,83.6353044 C625.095721,83.6353044 632.089501,87.5152928 635.904293,93.98194 L688.675552,185.808331 C692.490341,192.274978 692.490341,200.466065 688.675552,206.932712 L687.61589,208.657151 C686.768157,209.950481 685.708494,211.24381 684.436896,212.321585 L642.68614,285.179144 L735.08883,446.845325 L737.420091,450.294203 C740.175217,456.76085 740.811015,464.951938 738.903619,470.77192 L690.371016,555.269443 C686.556224,561.73609 679.774377,565.61608 672.356729,565.61608 L588.219417,566.047189 L495.392862,729.222255 C491.57807,735.688902 484.796223,739.568891 477.378575,739.568891 L372.259918,740 L370.77639,740 C363.99454,739.568891 357.424625,735.688902 354.033701,729.653363 L308.892019,650.975823 L125.146304,650.975823 C123.662774,651.406932 122.391177,651.406932 120.907648,651.406932 C113.701934,651.406932 106.708152,647.526945 102.893362,641.060298 L54.3607568,556.562772 C50.5459668,550.311681 50.5459668,542.336149 54.3607568,535.653946 L96.1115135,461.934168 L2.86109246,298.974658 C-0.953697487,292.723566 -0.953697487,284.748034 2.86109246,278.065832 L54.7846224,185.808331 C58.1755467,179.341684 65.1693284,175.461695 72.7989082,175.461695 C74.7063032,175.030586 76.1898325,175.461695 77.6733621,175.892805 L163.718069,175.892805 L255.696893,14.226624 C256.120759,12.9332945 256.332691,11.85552 256.96849,10.9933003 L257.392355,10.3466356 C261.207145,3.87998835 267.988994,0 275.406641,0 L372.047985,0 L371.836053,0 Z M273.923112,22.4177105 L174.102775,197.663851 L71.9511772,197.663851 L270.74412,545.353918 L169.440254,545.353918 L120.483782,631.360326 L319.912523,631.360326 L370.77639,720.600058 L569.569332,372.047771 L620.433199,460.856395 L718.558074,460.425284 L618.525803,285.179144 L668.965805,196.801631 L272.651515,197.232741 L323.515382,108.424119 L274.135044,22.4177105 L273.923112,22.4177105 Z M489.034877,303.070201 L370.140592,511.080689 L251.246305,303.070201 L489.034877,303.070201 Z" id="_形状"></path>
            </g>
        </g>
    </g>
</svg>

<svg xmlns="http://www.w3.org/2000/svg" width="1024" height="1024"><defs><linearGradient id="a" x1="76.72%" x2="18.306%" y1="41.305%" y2="66.065%"><stop offset="0%" stop-color="#797BEB"/><stop offset="100%" stop-color="#373080"/></linearGradient></defs><g fill="none" fill-rule="evenodd"><path fill="#FFF" d="M0 0h1024v1024H0z"/><path fill="url(#a)" fill-rule="nonzero" d="M371.836 0c7.206 0 14.2 3.88 18.014 10.347l41.963 73.288H617.89c7.206 0 14.2 3.88 18.014 10.347l52.772 91.826c3.814 6.467 3.814 14.658 0 21.125l-1.06 1.724c-.848 1.293-1.908 2.587-3.18 3.665l-41.75 72.857 92.403 161.666 2.331 3.45c2.755 6.466 3.391 14.657 1.484 20.477l-48.533 84.497c-3.815 6.467-10.597 10.347-18.014 10.347l-84.138.431-92.826 163.175c-3.815 6.467-10.597 10.347-18.014 10.347l-105.12.431h-1.483c-6.781-.431-13.351-4.311-16.742-10.347l-45.142-78.677H125.146c-1.483.43-2.755.43-4.238.43-7.206 0-14.2-3.88-18.015-10.346l-48.532-84.497c-3.815-6.251-3.815-14.227 0-20.91l41.75-73.719-93.25-162.96c-3.815-6.25-3.815-14.226 0-20.908l51.924-92.258c3.39-6.466 10.384-10.346 18.014-10.346 1.907-.431 3.39 0 4.874.43h86.045l91.979-161.665c.424-1.294.636-2.371 1.271-3.234l.424-.646C261.207 3.88 267.99 0 275.407 0h96.641-.212m-97.913 22.418-99.82 175.246H71.95l198.793 347.69H169.44l-48.956 86.006h199.429l50.863 89.24L569.57 372.048l50.864 88.808 98.125-.43-100.032-175.247 50.44-88.377-396.314.43 50.863-88.808-49.38-86.006h-.212M489.035 303.07 370.14 511.08 251.246 303.07h237.789" transform="translate(142 142)"/></g></svg>
